X:1
T:I Care Not For these Ladies
M:3/4
L:1/2
K:C
 G/2| c d/2| e f/2| e3/2| d B/2| c c/2| f e/2| d3/2| z G/2| c d/2|\
 e f/2| e3/2| d B/2| c c/2| f e/2| d3/2| A B/2| c d/2| B3/2| G g/2|\
 g a/2| f g/2| e3/2| z g/2| g3/4 f/4- e/2| d e/2| f3/2| z f/2| g3/4 g/4- f/2|\
 e e/2| d3/2| z e/2| d c/2| d B/2| c c/2| de/4-f/4| g3/4 f/4- e/2|\
 d d/2| c3/2| z||
